svg/water_check_outline.svg

<svg xmlns="http://www.w3.org/2000/svg" viewBox="0 0 24 24"><path d="M21.75 16.25 17 21l-2.75-3 1.16-1.16L17 18.43l3.59-3.59zM8 14c0-1.77 2-5.04 4-7.61 1.5 1.94 3 4.28 3.67 6.08.6-.26 1.26-.41 1.95-.47C16.31 8.1 12 3.25 12 3.25S6 10 6 14c0 3.31 2.69 6 6 6h.34c-.22-.64-.34-1.3-.34-2-2.21 0-4-1.79-4-4"/></svg>

<?xml version="1.0" encoding="UTF-8"?><!DOCTYPE svg PUBLIC "-//W3C//DTD SVG 1.1//EN" "http://www.w3.org/Graphics/SVG/1.1/DTD/svg11.dtd"><svg xmlns="http://www.w3.org/2000/svg" xmlns:xlink="http://www.w3.org/1999/xlink" version="1.1" id="mdi-water-check-outline" width="24" height="24" viewBox="0 0 24 24"><path d="M21.75 16.25L17 21L14.25 18L15.41 16.84L17 18.43L20.59 14.84L21.75 16.25M8 14C8 12.23 10 8.96 12 6.39C13.5 8.33 15 10.67 15.67 12.47C16.27 12.21 16.93 12.06 17.62 12C16.31 8.1 12 3.25 12 3.25S6 10 6 14C6 17.31 8.69 20 12 20C12.12 20 12.23 20 12.34 20C12.12 19.36 12 18.7 12 18C9.79 18 8 16.21 8 14Z" /></svg>
